resources/haticons/SVG/sticky_note_2.svg

<!-- Generated by IcoMoon.io -->
<svg version="1.1" xmlns="http://www.w3.org/2000/svg" width="24" height="24" viewBox="0 0 24 24">
<title>sticky_note_2</title>
<path d="M18.984 3h-14.016q-0.797 0-1.383 0.586t-0.586 1.43v13.969q0 0.844 0.586 1.43t1.43 0.586h9.984l6-6v-9.984q0-0.844-0.586-1.43t-1.43-0.586zM6.984 8.016h10.031v1.969h-10.031v-1.969zM12 14.016h-5.016v-2.016h5.016v2.016zM14.016 19.5v-5.484h5.484z"></path>
</svg>

<svg xmlns="http://www.w3.org/2000/svg" width="24" height="24"><path d="M18.984 3H4.968q-.797 0-1.383.586t-.586 1.43v13.969q0 .844.586 1.43t1.43.586h9.984l6-6V5.017q0-.844-.586-1.43t-1.43-.586zm-12 5.016h10.031v1.969H6.984V8.016zm5.016 6H6.984V12H12v2.016zm2.016 5.484v-5.484H19.5z"/></svg>
